icon/gr/atm.svg

<svg xmlns="http://www.w3.org/2000/svg" viewBox="0 0 24 24" height="1em" width="1em">
  <path fill="none" stroke="#000" stroke-width="2" d="M4,10 L1,10 L1,6 L23,6 L23,10 L20,10 M6,6 L18,6 L18,20.0059397 C18,21.1072288 17.0980496,22 15.9914698,22 L8.0085302,22 C6.8992496,22 6,21.1054862 6,20.0059397 L6,6 Z M13,18 L16,18 M13,15 L16,15 M13,12 L16,12 M10,22 L10,6 M3,2 L6,2 M8,2 L11,2 M13,2 L16,2 M18,2 L21,2"/>
</svg>

<svg xmlns="http://www.w3.org/2000/svg" width="24" height="24"><path fill="none" stroke="#000" stroke-width="2" d="M4 10H1V6h22v4h-3M6 6h12v14.006A2.003 2.003 0 0 1 15.991 22H8.01A2.002 2.002 0 0 1 6 20.006V6Zm7 12h3m-3-3h3m-3-3h3m-6 10V6M3 2h3m2 0h3m2 0h3m2 0h3"/></svg>
